!!! OTL: Berkowitz467
!!! Chapter: 1
!!! Section: IV
!!! Page: 116
!!! Mode: 
!!! Encoder: DJB
**kern
*staff1
*I"Piano
=1-
*clefC3
*k[b-]
*d:
*M3/4
[2a\
8a\L]
8f\J
=2
4c#\
4d\
8r
[8b-\
=3
8b-\L]
8g\J
8e\L
8c#\J
8cc#\L
8dd\J
=4
4f\
4e\
4r
=5
[2cc\
8cc\L]
8a\J
=6
8e\L
8f\J
8b-\L
8dd-\J
4cc\
=7
8Bn/L
8c/J
8b-\L
8a\J
8g\L
8a\J
=8
2f\
4r
=9
!!linebreak:original
8G#/L
8A/J
8g\L
8f\J
8e\L
8f\J
=10
4d\
4.e-\
8d\
=11
8c/L
8B-/J
8A/L
8G/J
8F#/L
8e/J
=12
4d\
4r
8.g\L
16a\Jk
=13
8b-\L
8g\J
4e-\
4d\
=14
4c#\
4a\
8r
[8G#/
=15
8G#/L]
8A/J
8g\L
8f\J
8c#\L
8e\J
=16
4d\
2r
==
*-
